assets/img/contacts/vk.svg

<svg width="80" height="80" viewBox="0 0 80 80" fill="none" xmlns="http://www.w3.org/2000/svg">
<path fill-rule="evenodd" clip-rule="evenodd" d="M75.7344 20.625C76.2906 18.8625 75.7344 17.5812 73.2734 17.5812H65.0906C63.0266 17.5812 62.0734 18.7031 61.5172 19.9031C61.5172 19.9031 57.3078 30.1531 51.4297 36.7984C49.5234 38.7203 48.65 39.3609 47.6172 39.3609C47.0609 39.3609 46.3453 38.7203 46.3453 36.9594V20.5422C46.3453 18.4609 45.7109 17.5 43.9625 17.5H31.0937C29.8219 17.5 29.0281 18.4609 29.0281 19.4219C29.0281 21.4234 31.9672 21.9047 32.2844 27.5094V39.6875C32.2844 42.3297 31.8156 42.8125 30.775 42.8125C27.9953 42.8125 21.2437 32.4828 17.1937 20.7125C16.4062 18.3812 15.6062 17.5 13.5406 17.5H5.27969C2.89688 17.5 2.5 18.6203 2.5 19.8219C2.5 21.9844 5.27969 32.8734 15.4469 47.2859C22.1984 57.1297 31.8094 62.4203 40.4672 62.4203C45.7109 62.4203 46.3453 61.2187 46.3453 59.2172V51.7703C46.3453 49.3687 46.8219 48.9687 48.4906 48.9687C49.6812 48.9687 51.8266 49.6078 56.6719 54.3328C62.2312 59.9375 63.1844 62.5 66.2828 62.5H74.4641C76.8469 62.5 77.9594 61.2984 77.3234 58.9766C76.6094 56.6547 73.9078 53.2922 70.4125 49.2891C68.5062 47.0484 65.6469 44.5656 64.7734 43.3641C63.5828 41.7625 63.9 41.1219 64.7734 39.6813C64.6937 39.6813 74.7031 25.4281 75.7344 20.6188" fill="#00A0E3"/>
</svg>

<svg width="80" height="80" fill="none" xmlns="http://www.w3.org/2000/svg"><path fill-rule="evenodd" clip-rule="evenodd" d="M75.734 20.625c.557-1.762 0-3.044-2.46-3.044H65.09c-2.064 0-3.018 1.122-3.574 2.322 0 0-4.21 10.25-10.087 16.895-1.907 1.922-2.78 2.563-3.813 2.563-.556 0-1.272-.64-1.272-2.402V20.542c0-2.081-.634-3.042-2.383-3.042H31.094c-1.272 0-2.066.96-2.066 1.922 0 2.001 2.94 2.483 3.256 8.087v12.178c0 2.643-.468 3.126-1.509 3.126-2.78 0-9.531-10.33-13.581-22.1-.788-2.332-1.588-3.213-3.653-3.213H5.28c-2.383 0-2.78 1.12-2.78 2.322 0 2.162 2.78 13.051 12.947 27.464 6.751 9.844 16.362 15.134 25.02 15.134 5.244 0 5.878-1.201 5.878-3.203V51.77c0-2.401.477-2.801 2.146-2.801 1.19 0 3.336.639 8.18 5.364 5.56 5.605 6.513 8.167 9.612 8.167h8.181c2.383 0 3.495-1.202 2.86-3.523-.715-2.322-3.416-5.685-6.912-9.688-1.906-2.24-4.765-4.723-5.639-5.925-1.19-1.601-.873-2.242 0-3.683-.08 0 9.93-14.253 10.961-19.062" fill="#00A0E3"/></svg>
